source/images/icon-home.svg

<svg width="20" height="20" viewBox="0 0 20 20" fill="none" xmlns="http://www.w3.org/2000/svg">
<path d="M10 3L4 8.80006V15.0001H16V8.80006L10 3ZM15 14.0001H5V9.20005L10 4.4L15 9.20005V14.0001Z" fill="white"/>
<path d="M8 13.0001H9V10.5001H11V13.0001H12V9.50005H8V13.0001Z" fill="white"/>
</svg>

<svg width="20" height="20" viewBox="0 0 20 20" fill="none" xmlns="http://www.w3.org/2000/svg"><path d="M10 3L4 8.8V15h12V8.8L10 3zm5 11H5V9.2l5-4.8 5 4.8V14z" fill="#fff"/><path d="M8 13h1v-2.5h2V13h1V9.5H8V13z" fill="#fff"/></svg>
